build/images/icon/twitter.svg

<svg xmlns="http://www.w3.org/2000/svg"><path d="M9.695.955c-.356.227-.75.392-1.17.482A1.779 1.779 0 007.181.81c-1.017 0-1.841.888-1.841 1.983 0 .154.016.307.048.451-1.531-.082-2.887-.872-3.796-2.072a2.095 2.095 0 00-.248.997c0 .688.325 1.295.818 1.649a1.731 1.731 0 01-.834-.247v.024c0 .961.635 1.761 1.477 1.944a1.728 1.728 0 01-.832.034c.235.787.915 1.359 1.72 1.376a3.529 3.529 0 01-2.726.822c.815.563 1.783.89 2.823.89 3.386 0 5.238-3.02 5.238-5.64l-.006-.257c.361-.278.674-.627.921-1.024a3.504 3.504 0 01-1.058.311c.381-.245.672-.634.81-1.096z"/></svg>

<svg xmlns="http://www.w3.org/2000/svg" viewbox="0 0 10 9">
  <path d="M9.695,0.955 C9.339,1.182 8.945,1.347 8.525,1.437 C8.189,1.051 7.711,0.810 7.181,0.810 C6.164,0.810 5.340,1.698 5.340,2.793 C5.340,2.947 5.356,3.100 5.388,3.244 C3.857,3.162 2.501,2.372 1.592,1.172 C1.434,1.465 1.344,1.805 1.344,2.169 C1.344,2.857 1.669,3.464 2.162,3.818 C1.861,3.809 1.577,3.719 1.328,3.571 L1.328,3.595 C1.328,4.556 1.963,5.356 2.805,5.539 C2.651,5.584 2.488,5.608 2.320,5.608 C2.201,5.608 2.086,5.595 1.973,5.573 C2.208,6.360 2.888,6.932 3.693,6.949 C3.063,7.481 2.269,7.798 1.407,7.798 C1.258,7.798 1.111,7.788 0.967,7.771 C1.782,8.334 2.750,8.661 3.790,8.661 C7.176,8.661 9.028,5.641 9.028,3.021 L9.022,2.764 C9.383,2.486 9.696,2.137 9.943,1.740 C9.612,1.896 9.258,2.004 8.885,2.051 C9.266,1.806 9.557,1.417 9.695,0.955 Z"/>
</svg>
